X: 33213
T: Providence, The
R: reel
M: 4/4
K: Dmajor
~E3F DEFA|d2 fd gd fd|ed Bd A2 FA|Bd AF GFED|
~E3F DEFA|d2 fd gd fd|ed Bd A2 FA|Bd AG FDD2:|
fddd fdgd|fddd ecAe|fddd gfed|ceag fdd2|
f (3fga f gfec|dcAF G2FG|A2GB ABde|~f2 eg fdd2:|

